X: 726
T: Gaizu guomindang tongshuaibu
%%abc-version 2.0
%%abcx-abcm2ps-target-version 5.9.1 (29 Sep 2008)
%%abc-creator hum2abc beta
%%abcx-conversion-date 2013/10/02 07:52:30
%%abc-edited-by Helmut Schaffrath
%%humdrum-veritas 1948530503
%%humdrum-veritas-data 4019326258
%%continueall 1
%%barnumbers 0
L: 1/8
M: 4/4
K: G
B2A Bd2e d [I:setbarnb 1]| 
B2A cB4 | 
B2A Bd2e d | 
B2A cB4 | 
B2A Bd2e d | 
B2A B B G F E | 
d2>e2 B A G F | 
E2D FE4 |]  



